svg/Filled/arrow-up_filled.svg

<svg viewBox="0 0 24 24" xmlns="http://www.w3.org/2000/svg" width="24" height="24"><path d="M11.32 5.1a2.2 2.2 0 0 1 1.36 0l.12.05q.39.17.63.4.27.22.55.52l4.59 4.59.08.09a1.2 1.2 0 0 1-1.78 1.6L13.2 8.68v9.24a1.2 1.2 0 0 1-2.4 0V8.68l-3.67 3.67-.1.09a1.2 1.2 0 0 1-1.68-1.7l.08-.08 4.59-4.6q.27-.28.55-.52c.18-.15.43-.33.75-.43"/></svg>

<svg viewBox="0 0 24 24" xmlns="http://www.w3.org/2000/svg" width="24" height="24"><path d="M11.32 5.1A2.2 2.2 0 0 1 12.68 5.1L12.8 5.15Q13.19 5.32 13.43 5.55Q13.7 5.77 13.98 6.07L18.65 10.75A1.2 1.2 0 0 1 16.87 12.35L13.2 8.68L13.2 17.92A1.2 1.2 0 0 1 10.8 17.92L10.8 8.68L7.03 12.44A1.2 1.2 0 0 1 5.35 10.74L10.02 6.06Q10.29 5.78 10.57 5.54C10.75 5.39 11 5.21 11.32 5.11"/></svg>
